X: 59
T:Dissembling Love
M:6/8
L:1/8
Q:90
R:Jig
K:DAeol
D|D2E F2G|A3 A2d|c2A B2G|A3 A2||
B/2c/2|d2A AB2|c3 F> GA/2B/2|GAF/2G/2 E> DE/2F/2|D3 D2||

